/* XPM */
static const char * const neossf_icon_xpm[] = {
/* columns rows colors chars-per-pixel */
"32 32 135 2 ",
"   c None",
".  c #020200",
"X  c #090600",
"o  c #0A0900",
"O  c #131000",
"+  c #1C1800",
"@  c #282300",
"#  c #312B00",
"$  c #373200",
"%  c #393100",
"&  c #3E3800",
"*  c #413B00",
"=  c #493E01",
"-  c #474100",
";  c #4D4200",
":  c #544C00",
">  c #584C00",
",  c #5D5300",
"<  c #645700",
"1  c #645A00",
"2  c #695E00",
"3  c #6E6300",
"4  c #6F6A00",
"5  c #726500",
"6  c #756A00",
"7  c #7B6C01",
"8  c #806F01",
"9  c #827300",
"0  c #8B7A00",
"q  c #8F8001",
"w  c #928201",
"e  c #978801",
"r  c #9A8A00",
"t  c #9F9000",
"y  c #A39301",
"u  c #AA9501",
"i  c #A49800",
"p  c #AD9B01",
"a  c #B19E01",
"s  c #B4A301",
"d  c #BAA701",
"f  c #BCAA01",
"g  c #C2AD01",
"h  c #C4B401",
"j  c #CBB701",
"k  c #C4BE01",
"l  c #CEBB00",
"z  c #D4BE01",
"x  c #CDCA01",
"c  c #D5C201",
"v  c #DAC601",
"b  c #D4C801",
"n  c #DDCB01",
"m  c #D5D101",
"M  c #DBD501",
"N  c #E4CD01",
"B  c #E9CF01",
"V  c #ECD401",
"C  c #E3DC01",
"Z  c #EEDB01",
"A  c #F1D701",
"S  c #F3DB01",
"D  c #F9DE01",
"F  c #E4E001",
"G  c #EEE201",
"H  c #F4E401",
"J  c #FBE001",
"K  c #FBE201",
"L  c #F9E101",
"P  c #FCE201",
"I  c #FDE201",
"U  c #FCE301",
"Y  c #FDE301",
"T  c #F8E701",
"R  c #FCE401",
"E  c #FDE401",
"W  c #FCE501",
"Q  c #FEE401",
"!  c #FFE401",
"~  c #FFE601",
"^  c #FEE701",
"/  c #FAE201",
"(  c #F5E901",
")  c #F3EF01",
"_  c #F7EC01",
"`  c #FAE801",
"'  c #FAE901",
"]  c #FAEA01",
"[  c #FCE901",
"{  c #FCEA01",
"}  c #FDEA01",
"|  c #FCEB01",
" . c #FFEA01",
".. c #FFEB01",
"X. c #F9ED01",
"o. c #FBEF01",
"O. c #FDEC01",
"+. c #FFED01",
"@. c #FFEF01",
"#. c #FAEB01",
"$. c #F1F001",
"%. c #F4F401",
"&. c #F8F201",
"*. c #FFF001",
"=. c #FFF101",
"-. c #FDF201",
";. c #FDF301",
":. c #FFF301",
">. c #FAF401",
",. c #FAF501",
"<. c #F8F701",
"1. c #FAF601",
"2. c #FDF401",
"3. c #FFF401",
"4. c #FFF501",
"5. c #FCF601",
"6. c #FCF701",
"7. c #FFF701",
"8. c #FEF501",
"9. c #F6F801",
"0. c #F9F801",
"q. c #F9F901",
"w. c #F9FA01",
"e. c #FBFB01",
"r. c #FCF801",
"t. c #FCF901",
"y. c #FDF901",
"u. c #FFF801",
"i. c #FFF901",
"p. c #FDFB01",
"a. c #FFFA01",
"s. c #FFFB01",
"d. c #FCFC01",
"f. c #FFFF01",
"g. c #FFFF01",
/* pixels */
"                                                                ",
"                                                                ",
"                                                                ",
"                                                                ",
"                                                                ",
"                                                                ",
"            . . . . . . . X   . . . . . . . . . . . . . . . . . ",
"          - z S v N n V S q # V N N N N N N N N N N N N N V A < ",
"          x 0.D P E D -.F 5 v p.D P P P L L L P P P P P L | $.5 ",
"        , Z T N S V B D z 2 E S S S V V V V Z S S V V V B V S 2 ",
"        2 G ' V D | 0.d.M 7 | S S S X.7.<.7.L V S ' p.7.<.p.$.9 ",
"        1 G T V L a 3 9 1 1 -.S S D r 3 6 5 j @.L a 2 7 6 7 9 # ",
"        ; C H X.k @       & -.V | h         r d.H 5             ",
"          h @.H L 5         n ' S E *       s p.T 6             ",
"          < G Z ' m %       9 p.N <.h       a 7.S f 7 r w #     ",
"            s 0.N 7.f       + S | V 0.6     d -.A | 9.%.) w     ",
"            = M ( S F >       , p.V _ N     d -.S g 0 y t %     ",
"              9 @.D @.p         d @.Z p.1   u d.H 5             ",
"              = n W E b         , &.V p.i   e d.H 7             ",
": 5 3 3 5 3 2 d E V | n ; 2 5 5 c E B 7.h X w d.T 7             ",
"c <.7.7.p.7.7.' S V | c 9 7.0.-.E S V 7.l o q d.T 7             ",
"s D V V V V V V S V | c 3 D V V Z S N p.f   w d.T 7             ",
"g ' L D L L L L D ' 7.a 4 d.S L L D L d.4   p d.X.8             ",
"s S V V V V V V V E y $ z W N V V N L 0     p @.D 6             ",
". . . . . . . . X X . X O . . . . X .       . X X               ",
"                                                                ",
"                                                                ",
"                                                                ",
"                                                                ",
"                                                                ",
"                                                                ",
"                                                                "
};
